X: 106
T: Ochotną myśl, ochotne serce w sobie czuję,
C: Mikołaj Gomółka
%%abc-version 2.0
%%abcx-abcm2ps-target-version 5.9.1 (29 Sep 2008)
%%abc-creator hum2abc beta
%%abcx-conversion-date 2021/10/04 07:59:09
%%abc-edited-by Leszek Kubiak
%%abcx-initial-encoding-date data 2020-02-19
%%humdrum-veritas 3518597497
%%humdrum-veritas-data 895475556
%%linebreak <none>
%%barnumbers 0
L: 1/4
M: C|
N: Derived from pl-wn--sd-xvi-qu-273--108_gomolka-mikolaj--ochotna-mysl-ochotne-serce-w-sobie-czuje.krn
%%staves [1 2 3 4]
V: 1
V: 2 clef=alto
V: 3 clef=alto
V: 4
K: C
[V:1] CDEF2<G2A [|] 
[V:2] z2C2>D2EF [|] 
[V:3] G,2G,2>A,2B,C [|] 
[V:4] C,2>D,2E,F,G,3 [|] 
[V:1] Bcd2GABc [|] 
[V:2] G2G2G2D2 [|] 
[V:3] D2G,A,B,CDE [|] 
[V:4] A,B,CD2G,2 [|] 
[V:1] d2AB2<c2B/A/ [|] 
[V:2] D2D2CDEF [|] 
[V:3] F2F2E3D/C/ [|] 
[V:4] D,E,F,G,A,2A,2 [|] 
[V:1] Bc2Bc4 [|] 
[V:2] G2>F2E4 [|] 
[V:3] DED2C4 [|] 
[V:4] G,4C,4 [|] 
[V:1] c2>c2B2c2 [|] 
[V:2] G2>G2G2G2 [|] 
[V:3] E2>E2D2E2 [|] 
[V:4] C,2>C,2G,2C,2 [|] 
[V:1] A2A2G4 [|] 
[V:2] C2>D2EFG2 [|] 
[V:3] F2F2E2E2 [|] 
[V:4] F,G,A,E,C2C2 [|] 
[V:1] G2AGFG2F [|] 
[V:2] D2C4B,A, [|] 
[V:3] D2EDCD2C [|] 
[V:4] B,2C2A,2A,2 [|] 
[V:1] G2G2G2A2 [|] 
[V:2] B,2E2E2C2 [|] 
[V:3] D2C2C3B,/A,/ [|] 
[V:4] G,2C,2E,2F,2 [|] 
[V:1] F4E2c4 [|] 
[V:2] D4E2G4 [|] 
[V:3] B,C2B,C2E4 [|] 
[V:4] D,4C,2C4 [|] 
[V:1] c2e2e2 [|] 
[V:2] A2G3E [|] 
[V:3] C2E3C [|] 
[V:4] A,2C2C2 [|] 
[V:1] d2>c2B2AB [|] 
[V:2] ^FG2=FG2EF [|] 
[V:3] F2D2D2CD [|] 
[V:4] D2D,2G,2A,2 [|] 
[V:1] cBAGABc2 [|] 
[V:2] GFEDE2F2 [|] 
[V:3] EDCB,ED2C [|] 
[V:4] E,2A,B,CB,A,2 [|] 
[V:1] B2DEFGAG [|] 
[V:2] G2G2F2C2 [|] 
[V:3] D2B,CDCA,3 [|] 
[V:4] G,2x2D,E,F,E, [|] 
[V:1] FDG4F2 [|] 
[V:2] D2E2D3C [|] 
[V:3] B,CB,A,G,A,2 [|] 
[V:4] D,2C,2D,4 [|] 
[V:1] G32 [|] 
[V:2] B,32 [|] 
[V:3] G,32 [|] 
[V:4] G,32 [|] 


